X: 303
T: HURRAH! FOR OLD ERIN FOR EVER
T: Urra! Le sean Eirinn go brath
B: O'Neill's 303
M: 6/8
L: 1/8
Z: 1999 by John Chambers <jc@trillian.mit.edu>
N: "Cheerful"
N: "Collected by J.O'Neill"
K:G
(B/c/) \
|dcB cde|d2z zHdc|BGE DEF|G3 zBc|
|dcB cde|A3- A2 f/e/|dcA EFD|G3 z2||
||G \
|EFG BHed|e3 z2e/f/|gfe Bed|e3 z2e/f/|
|gfe dcB|eHez zef|gdB dcAF|G3 z2||
||b/c/ \
|ded dcB|d3 zge|ded dcB|BA3 z2c|
|Bcd def|He3 zef|gdB dcAF|G3 z2||
